X: 20752
M: 2/4
L: 1/16
K: F
c3c =Bcdc | f3c A2AB | c3c (=Bcdc) | e3.d .c.B.A.G |\
|: fg |\
aaaa a2gf | aggg g2ef | gggg g2ag | gfff f2fg |\
aaaa a2gf | aggg g2ef | gggg g2ag | f4 z2 :|
K: Dm
|: d2 |\
d^cde fefg | a2a2A3a | b3ba3a | gagf d3d |\
.d.^c.d.e .f.e.f.g | a2a2g2g2 | f2f2 cdef | d4 z2 :|


